img/border.svg

<?xml version="1.0" encoding="UTF-8" standalone="no"?>
<svg width="328px" height="57px" viewBox="0 0 328 57" version="1.1" xmlns="http://www.w3.org/2000/svg" xmlns:xlink="http://www.w3.org/1999/xlink">
    <!-- Generator: Sketch 3.6.1 (26313) - http://www.bohemiancoding.com/sketch -->
    <title>Page 1</title>
    <desc>Created with Sketch.</desc>
    <defs></defs>
    <g id="Landing" stroke="none" stroke-width="1" fill="none" fill-rule="evenodd">
        <g id="Desktop-HD" transform="translate(-556.000000, -883.000000)" fill="#FFFFFF">
            <g id="Group" transform="translate(556.000000, 883.000000)">
                <path d="M324.896709,7.64820877 L324.896709,2.67613279 C324.896709,2.59464232 324.903113,2.51274338 324.877498,2.43186562 C324.839075,2.29952019 324.640557,2.21278765 324.183753,2.20577552 C323.758968,2.19923994 323.336318,2.18201597 322.911533,2.17963321 C319.36383,2.1599584 315.818263,2.14069207 312.27056,2.12503392 C307.700386,2.10488255 303.132345,2.07424704 298.56217,2.07302162 C290.045123,2.07070694 281.528076,2.08650125 273.011029,2.09460264 C269.177291,2.09821082 265.343552,2.09936816 261.511948,2.10535911 C252.965017,2.1186345 244.42022,2.1421898 235.875423,2.14654685 C228.6925,2.15015504 221.511712,2.13722004 214.328788,2.12278731 C209.50481,2.1131201 204.679977,2.0892244 199.855358,2.06975383 C195.76867,2.05314257 191.682409,2.03074461 187.59572,2.01644804 C181.606891,1.99547973 175.617849,1.97621339 169.62838,1.96232529 C164.659675,1.95088803 159.690971,1.94816488 154.722053,1.94196969 C145.267704,1.93012396 135.813782,1.91038107 126.359433,1.90915565 C115.854434,1.90779408 105.349009,1.91106186 94.844224,1.93638722 C88.8009628,1.95088803 82.7581286,2.00923167 76.7159348,2.05552534 C73.2277878,2.08221227 69.7413484,2.13320339 66.252988,2.15655446 C62.4489204,2.18208405 58.6489086,2.12578278 54.8557275,2.03816521 C52.8477109,1.99173539 50.8480192,1.9112661 48.8436315,1.84999507 C46.8958106,1.79042601 44.9499108,1.71186294 42.9971803,1.68361019 C38.1964688,1.61410161 33.4098457,1.72656799 28.6298398,1.8531267 C23.7072428,1.98349784 18.7824898,2.08806706 13.8389737,2.05906544 C10.5145503,2.03952679 7.2118999,1.94796064 3.94404342,1.7459024 C3.41508997,1.71315644 2.88656344,1.67884466 2.35355426,1.65488088 C1.72598237,1.62662813 1.54560882,1.68156782 1.53045317,1.88859582 C1.52725127,1.93373214 1.52767819,1.97954926 1.54646266,2.02420903 C1.73494768,2.46338616 1.91788275,2.9028356 2.12088305,3.34133193 C2.54396042,4.25454259 2.96639742,5.16850212 3.02317773,6.09287772 C3.07675615,6.96197324 3.06757738,7.83154531 3.05925244,8.70084506 C3.01933546,12.8752403 2.98112615,17.0496356 2.91943626,21.2239627 C2.89616914,22.8081593 2.82081782,24.3922196 2.75101645,25.9762119 C2.71750326,26.736245 2.64620768,27.4960738 2.58366395,28.2559707 C2.4739456,29.5856202 2.3315679,30.9149973 2.25088008,32.2447829 C2.15418278,33.8376254 2.07029307,35.4307402 2.05086823,37.0238551 C2.03357798,38.4178391 2.10423318,39.8120273 2.15162126,41.2060794 C2.2098958,42.9168346 2.30403158,44.6275218 2.34715046,46.3383451 C2.41140187,48.8824544 2.44406122,51.4267135 2.49016855,53.9708228 C2.49102239,54.0070408 2.48675319,54.0433269 2.49144931,54.0794768 C2.50639149,54.1971171 2.50916647,54.3150979 2.54438734,54.4320575 C2.68868619,54.9098354 3.40292276,55.1765686 4.8766494,55.2705856 C5.51083854,55.3110245 6.17192363,55.3230064 6.8208415,55.3228021 C11.2501329,55.3212363 15.6796377,55.3044208 20.1089505,55.3085736 C29.08024,55.3171516 38.0513161,55.3316524 47.0221788,55.3530292 C49.7454992,55.3594286 52.4681793,55.4151852 55.1910729,55.4140279 C58.0268867,55.4128025 60.8718792,55.4070838 63.6963796,55.3360775 C67.0065012,55.2527489 70.3129939,55.154511 73.6327211,55.1569619 C77.6056353,55.1598212 81.5779093,55.2132631 85.5503966,55.2116973 C89.5794508,55.2101315 93.6087185,55.144095 97.6371323,55.1498817 C102.687165,55.1571661 107.736344,55.2077487 112.785736,55.2418563 C115.026424,55.2569698 117.266898,55.2816825 119.508013,55.2949578 C123.139605,55.3165389 126.771837,55.3362817 130.404069,55.3483998 C131.764876,55.3530292 133.12675,55.3362137 134.487983,55.3254572 C137.664905,55.300268 140.842041,55.2754192 144.018537,55.2455325 C147.30774,55.2146247 150.596088,55.1728243 153.885718,55.1460692 C155.352187,55.1342235 156.759314,55.2332103 158.082978,55.4420083 C158.912483,55.572856 159.804959,55.6244598 160.720274,55.6313358 C163.074309,55.6491725 165.429198,55.6649668 167.78366,55.6755871 C170.111439,55.6861393 172.439646,55.6983255 174.767425,55.6940365 C179.138228,55.6860712 183.509245,55.6678942 187.879835,55.6516233 C192.335382,55.6350801 196.790716,55.616018 201.246263,55.5975006 C205.503505,55.5798001 209.760108,55.5595125 214.017137,55.5437182 C219.409132,55.523703 224.803262,55.5056621 230.195257,55.4895274 C232.607353,55.4823791 235.021584,55.476252 237.435815,55.4797921 C242.770176,55.4876212 248.104537,55.5007604 253.438898,55.51424 C255.255441,55.5188013 257.071984,55.527107 258.888527,55.5398377 C262.461845,55.5650269 266.035162,55.5966836 269.60848,55.6216005 C273.3547,55.6477428 277.098785,55.6708896 280.845005,55.6921984 C284.58909,55.7135751 288.33531,55.739377 292.08153,55.7458445 C293.411385,55.7480911 294.747643,55.7139155 296.073229,55.6707535 C299.089416,55.5721752 302.097065,55.4353366 305.119656,55.3550715 C309.662081,55.2343676 314.18743,55.3089821 318.682894,55.5677501 C319.513252,55.6156096 320.371361,55.6408668 321.214527,55.6367821 C322.215654,55.6318123 322.994782,55.4675379 323.50922,55.1906609 C324.053543,54.8977854 324.384406,54.5829885 324.38654,54.2388495 C324.388675,53.4420538 324.375867,52.64519 324.388675,51.8483943 C324.429232,49.2498764 324.46552,46.651372 324.525289,44.0528676 C324.578654,41.7624884 324.646961,39.4721093 324.732345,37.1817982 C324.772902,36.1049939 324.845479,35.0281215 324.950074,33.9516576 C325.063208,32.794384 325.26386,31.6379273 325.364186,30.4805857 C325.445301,29.5304082 325.455974,28.5794137 325.464512,27.6287596 C325.473051,26.5058659 325.460243,25.3829041 325.432493,24.2600784 C325.409013,23.4275413 325.344975,22.5951403 325.298014,21.7626712 C325.240379,20.7039079 325.18488,19.6452125 325.127246,18.5864491 C325.099496,18.0705471 325.080285,17.5545089 325.043996,17.0386068 C324.962882,15.853557 324.860421,14.6686434 324.794248,13.4835255 C324.777172,13.1507557 324.890305,12.8175094 324.89244,12.4844673 C324.903113,10.8723584 324.896709,9.26031764 324.896709,7.64820877 M326.815475,42.5947533 C326.724554,43.8343343 326.678036,45.074528 326.532139,46.3134963 C326.310122,48.2325049 326.358754,50.1513911 326.434874,52.0705359 C326.466591,52.8305009 326.536368,53.5903978 326.606145,54.3502266 C326.739355,55.7796117 322.616181,57.0766513 317.516132,56.7424519 C316.39336,56.6689266 315.232527,56.6280793 314.088611,56.6238584 C310.741439,56.6115361 307.394268,56.6225649 304.047096,56.6294409 C297.974401,56.6418993 291.901705,56.661438 285.826895,56.6708329 C283.325503,56.6746453 280.821996,56.6681097 278.318489,56.6514984 C273.823172,56.621748 269.327855,56.580424 264.832538,56.5446826 C262.445326,56.5257567 260.055999,56.5161575 257.668787,56.4885175 C254.488657,56.4516187 251.329671,56.5561199 248.162228,56.6086768 C245.665064,56.6500007 243.159443,56.6532004 240.658051,56.6500007 C237.792974,56.6463925 234.925782,56.6133742 232.05859,56.5997585 C227.588646,56.5785178 223.118702,56.5559156 218.648759,56.5474058 C216.119879,56.5425722 213.588884,56.5642893 211.057678,56.5748416 C209.28725,56.5821941 207.516823,56.5971715 205.746395,56.5980565 C195.001404,56.6035709 184.256412,56.6058856 173.511631,56.6094257 C170.333827,56.6104468 167.164269,56.6472095 164.001266,56.7626713 C161.709627,56.8462042 159.455413,56.7349632 157.256599,56.5210592 C155.364802,56.3369738 153.462856,56.174946 151.464913,56.2225332 C150.233459,56.2518071 149.009827,56.3136908 147.779853,56.3507258 C145.766475,56.411316 143.753098,56.475106 141.735491,56.5155448 C140.306335,56.544138 138.868722,56.5544179 137.437875,56.5412787 C133.562303,56.5055372 129.687999,56.4553631 125.813695,56.4063462 C122.556388,56.3652266 119.300349,56.3143035 116.04283,56.2737966 C111.410074,56.2162018 106.773723,56.1796434 102.143716,56.1040077 C99.3160639,56.0577822 96.5336614,56.1571093 93.7455499,56.2683503 C91.3456511,56.3640692 88.9406776,56.4636687 86.5206916,56.4310589 C83.8829174,56.3955898 81.2470461,56.3341145 78.6166725,56.2601127 C76.1761763,56.1914892 73.7426577,56.1537054 71.2941266,56.2119128 C70.2026484,56.2378509 69.1020781,56.2265498 68.0055252,56.2285241 C63.9836331,56.2359447 59.961741,56.2428888 55.9400604,56.2481989 C46.6032911,56.2605212 37.2663104,56.2673972 27.9295411,56.2857785 C24.8380063,56.2919056 21.7432998,56.303479 18.6568185,56.3541297 C15.2624946,56.4098183 11.8755714,56.511392 8.48632223,56.5966949 C6.10925947,56.6565363 3.93454941,56.5126855 2.23495588,55.9312915 C0.939433417,55.4880977 0.20910298,54.9582395 0.134251511,54.3432145 C0.130022615,54.3069965 0.131714173,54.2707105 0.131079839,54.2344925 C0.105495015,52.5958328 0.0695493937,50.957037 0.0600343765,49.3183638 C0.0555940351,48.6033989 -0.00530207547,47.8858471 0.153281546,47.1739458 C0.543397254,45.4207774 0.217772218,43.6669282 0.329626533,41.9139641 C0.421393588,40.475048 0.491170381,39.0361319 0.559889951,37.5971477 C0.597315685,36.8190737 0.659691909,36.0407274 0.623111954,35.2629257 C0.58568622,34.4671512 0.423719481,33.6721255 0.356902915,32.8764191 C0.342101777,32.6999585 0.422239367,32.5145796 0.586954889,32.3463566 C0.947468321,31.9781177 1.09822848,31.6020498 1.05319073,31.2216247 C0.930129845,30.1794726 1.20796835,29.1418818 1.31876544,28.1023166 C1.42935108,27.0622068 1.50208811,26.0214163 1.53422772,24.98083 C1.57672813,23.6134648 1.57715102,22.2458954 1.56890467,20.8784622 C1.56340711,19.9549716 1.53549639,19.031413 1.47502317,18.1081947 C1.383679,16.7150277 1.25448621,15.3221329 1.14305479,13.929102 C1.08490746,13.2054231 1.01111321,12.4818122 0.9789736,11.7580652 C0.934993076,10.7626833 0.893127,9.76709713 0.907716693,8.77171522 C0.921460607,7.85775569 1.0483275,6.9440004 1.0586883,6.03004087 C1.07412377,4.67023249 0.66582381,3.31961476 0.0777957421,1.97410295 C0.0192255246,1.84019171 -0.00614785478,1.70342115 0.00125271421,1.56821641 C0.0325465488,1.00622491 1.01280477,0.660860542 2.76420229,0.649355205 C4.05105551,0.640845339 5.35313276,0.665694146 6.62877941,0.721859256 C8.80581536,0.817782457 10.98412,0.877011119 13.1803974,0.877011119 C13.9382157,0.877079198 14.6958225,0.897230559 15.4538522,0.899477164 C18.7748047,0.909416686 22.0778055,0.821254482 25.3814195,0.721450783 C27.1146327,0.669098092 28.8590526,0.647040521 30.6003007,0.631790843 C32.8752356,0.611911798 35.1535537,0.591692358 37.4278542,0.609529035 C39.9821078,0.629544238 42.5331896,0.691700294 45.0855401,0.735883514 C46.7132424,0.764000109 48.3405218,0.811587275 49.9688585,0.817646299 C54.8602117,0.835755293 59.7528335,0.86182952 64.6427066,0.837389187 C67.8416555,0.821322561 71.0361639,0.721927335 74.2334212,0.661813647 C75.8886113,0.63070158 77.5440128,0.596389803 79.2008945,0.577259626 C80.8013204,0.558878317 82.4044951,0.544581744 84.0053439,0.55241082 C87.8549085,0.571200602 91.7040501,0.605512379 95.5534032,0.630837738 C99.4315128,0.656435412 103.310045,0.682713876 107.189001,0.701027106 C109.579173,0.712260128 111.96998,0.708856182 114.360786,0.71280476 C123.078234,0.72730557 131.795893,0.752290534 140.513551,0.752426692 C144.842038,0.75256285 149.170948,0.712055892 153.499013,0.680943824 C156.448245,0.659839359 159.396632,0.623417135 162.34523,0.593190094 C162.541662,0.591147726 162.742323,0.591079647 162.932624,0.577531942 C164.255845,0.482834162 165.522823,0.553363925 166.69909,0.748069641 C168.354492,1.02188307 170.103352,1.09513599 171.930024,1.07975015 C176.621773,1.0401963 181.314368,0.982329212 186.006752,0.98055916 C192.923535,0.977767924 199.840318,1.03059717 206.75689,1.03549885 C216.151595,1.04217058 225.546089,1.0263082 234.940583,1.0195003 C238.287754,1.01704946 241.634926,1.01371359 244.979983,1.00881191 C252.460901,0.997919285 259.941819,0.981103791 267.422737,0.975249004 C277.183031,0.967624164 286.943324,0.966807217 296.703617,0.966330665 C299.234612,0.966194507 301.765606,0.96850919 304.296601,0.986890499 C307.554966,1.01051389 310.815445,1.03155027 314.069581,1.09098317 C316.873339,1.14217852 319.66864,1.24579464 322.466055,1.32571929 C323.474647,1.35451668 324.481124,1.38474372 325.491831,1.40925213 C326.999432,1.44594667 327.623194,1.64487328 327.606279,2.13463304 C327.589363,2.68634463 327.492099,3.23771581 327.443466,3.7894274 C327.41175,4.13329403 327.405406,4.47729682 327.390605,4.82129962 C327.352545,5.69005474 327.297569,6.55880986 327.282768,7.42763306 C327.259509,8.86750226 327.257395,10.3075076 327.253166,11.7473768 C327.246823,13.2777229 327.25528,14.8081371 327.251051,16.3384831 C327.246823,17.4521862 327.265853,18.5660255 327.208763,19.6794562 C327.170702,20.4208357 326.938113,21.1615344 326.935999,21.9026415 C326.933884,22.6346261 327.1411,23.3664064 327.196076,24.0987995 C327.23625,24.6503749 327.183389,25.2026311 327.164359,25.754615 C327.149558,26.1619312 327.119956,26.5692474 327.094582,26.9764955 C327.024806,28.1528993 326.946571,29.3292349 326.885252,30.5056387 C326.83662,31.3661563 326.944456,32.2247677 327.210877,33.0814728 C327.380033,33.6180709 327.052293,34.1451379 326.897939,34.6762896 C326.688608,35.4053468 326.434874,36.1371271 326.436989,36.867682 C326.441218,38.206454 326.631518,39.5450899 326.718211,40.883998 C326.754156,41.4538867 326.724554,42.0242519 326.724554,42.5944129 C326.754156,42.594549 326.783758,42.5946171 326.815475,42.5947533" id="Page-1"></path>
            </g>
        </g>
    </g>
</svg>

<svg width="328" height="57" viewBox="0 0 328 57" xmlns="http://www.w3.org/2000/svg">
  <title>Border</title>
  <path d="M324.897 7.648V2.676c0-.081.006-.163-.02-.244-.038-.132-.236-.22-.693-.226-.425-.007-.848-.024-1.272-.026-3.548-.02-7.094-.04-10.641-.055-4.57-.02-9.139-.05-13.709-.052-8.517-.002-17.034.014-25.551.022-3.834.003-7.667.004-11.5.01-8.546.014-17.09.037-25.636.042-7.183.003-14.363-.01-21.546-.024-4.824-.01-9.649-.034-14.474-.053-4.086-.017-8.173-.04-12.26-.054-5.988-.02-11.977-.04-17.967-.054-4.968-.011-9.937-.014-14.906-.02-9.454-.012-18.908-.032-28.363-.033-10.505-.001-21.01.002-31.515.027-6.043.015-12.086.073-18.128.12-3.488.026-6.975.077-10.463.1-3.804.026-7.604-.03-11.397-.118-2.008-.046-4.008-.127-6.012-.188-1.948-.06-3.894-.138-5.847-.166-4.8-.07-9.587.043-14.367.17-4.923.13-9.848.234-14.791.205-3.324-.02-6.627-.111-9.895-.313-.529-.033-1.057-.067-1.59-.091-.628-.028-.808.027-.824.234-.003.045-.002.09.016.135.189.44.372.879.575 1.317.423.914.845 1.828.902 2.752.054.869.045 1.739.036 2.608-.04 4.174-.078 8.349-.14 12.523-.023 1.584-.098 3.168-.168 4.752-.033.76-.105 1.52-.167 2.28-.11 1.33-.252 2.659-.333 3.989-.097 1.593-.18 3.186-.2 4.779-.017 1.394.053 2.788.1 4.182.059 1.71.153 3.422.196 5.132.064 2.544.097 5.089.143 7.633.001.036-.003.072.001.108.015.118.018.236.053.353.145.478.859.745 2.333.839.634.04 1.295.052 1.944.052 4.43-.002 8.859-.019 13.288-.014 8.971.008 17.942.023 26.913.044 2.723.006 5.446.062 8.17.061 2.835-.001 5.68-.007 8.504-.078 3.31-.083 6.617-.181 9.937-.179 3.973.003 7.945.056 11.917.055 4.03-.002 8.059-.068 12.087-.062 5.05.007 10.1.058 15.149.092 2.24.015 4.48.04 6.722.053 3.632.022 7.264.041 10.896.053 1.36.005 2.723-.012 4.084-.023 3.177-.025 6.354-.05 9.53-.08 3.29-.03 6.578-.072 9.868-.099 1.466-.012 2.873.087 4.197.296.83.13 1.722.182 2.637.19 2.354.017 4.71.033 7.064.044 2.327.01 4.656.022 6.983.018 4.371-.008 8.742-.026 13.113-.042l13.366-.054c4.258-.018 8.514-.038 12.771-.054 5.392-.02 10.786-.038 16.178-.054 2.412-.008 4.827-.014 7.24-.01 5.335.008 10.67.02 16.004.034 1.816.005 3.633.013 5.45.026 3.573.025 7.146.057 10.72.082 3.746.026 7.49.049 11.236.07 3.744.022 7.49.047 11.237.054 1.33.002 2.666-.032 3.991-.075 3.016-.099 6.024-.236 9.047-.316 4.542-.12 9.067-.046 13.563.213.83.048 1.688.073 2.532.069 1-.005 1.78-.17 2.294-.446.545-.293.875-.608.878-.952.002-.797-.011-1.594.002-2.39.04-2.6.077-5.198.136-7.796.054-2.29.122-4.58.207-6.871.04-1.077.113-2.154.218-3.23.113-1.158.314-2.314.414-3.471.081-.95.092-1.902.1-2.852.01-1.123-.004-2.246-.032-3.369-.023-.832-.087-1.665-.134-2.497-.058-1.06-.113-2.118-.17-3.177-.029-.515-.048-1.031-.084-1.547-.081-1.185-.184-2.37-.25-3.555-.017-.333.096-.666.098-1 .011-1.612.005-3.224.005-4.836m1.918 34.947c-.09 1.24-.137 2.48-.283 3.718-.222 1.92-.173 3.838-.097 5.758.032.76.101 1.52.171 2.28.133 1.429-3.99 2.726-9.09 2.391-1.123-.073-2.283-.114-3.427-.118-3.348-.012-6.695-.001-10.042.005-6.073.013-12.145.032-18.22.042-2.501.004-5.005-.003-7.509-.02-4.495-.03-8.99-.07-13.485-.106-2.388-.02-4.777-.029-7.164-.056-3.18-.037-6.34.067-9.507.12-2.497.041-5.003.044-7.504.041-2.865-.004-5.732-.037-8.6-.05-4.47-.021-8.94-.044-13.41-.053-2.528-.004-5.06.017-7.59.028-1.77.007-3.541.022-5.312.023-10.745.006-21.49.008-32.234.011-3.178.001-6.348.038-9.51.154-2.292.083-4.547-.028-6.745-.242-1.892-.184-3.794-.346-5.792-.298-1.232.029-2.455.09-3.685.128-2.014.06-4.027.124-6.045.165-1.429.028-2.866.038-4.297.025-3.876-.035-7.75-.086-11.624-.135-3.258-.04-6.514-.092-9.771-.132-4.633-.058-9.27-.094-13.9-.17-2.827-.046-5.61.053-8.397.164-2.4.096-4.805.196-7.225.163-2.638-.035-5.274-.097-7.904-.17-2.44-.07-4.874-.107-7.323-.05-1.091.027-2.192.016-3.288.018l-12.066.02c-9.337.012-18.674.018-28.01.037-3.092.006-6.187.017-9.273.068-3.395.056-6.781.157-10.17.243-2.378.06-4.552-.084-6.252-.666-1.296-.443-2.026-.973-2.1-1.588-.005-.036-.003-.072-.004-.109C.105 52.596.07 50.957.06 49.318c-.004-.715-.065-1.432.093-2.144.39-1.753.065-3.507.177-5.26.091-1.439.161-2.878.23-4.317.037-.778.1-1.556.063-2.334-.037-.796-.2-1.59-.266-2.387-.015-.176.065-.361.23-.53.36-.368.511-.744.466-1.124-.123-1.043.155-2.08.266-3.12.11-1.04.183-2.08.215-3.121.043-1.368.043-2.735.035-4.103-.006-.923-.034-1.847-.094-2.77-.091-1.393-.22-2.786-.332-4.179-.058-.724-.132-1.447-.164-2.17-.044-.996-.086-1.992-.071-2.987.013-.914.14-1.828.15-2.742.016-1.36-.392-2.71-.98-4.056-.059-.134-.084-.27-.077-.406C.033 1.006 1.013.661 2.764.65 4.051.641 5.354.666 6.63.722c2.177.096 4.355.155 6.551.155.758 0 1.516.02 2.274.022 3.32.01 6.624-.078 9.927-.178 1.734-.052 3.478-.074 5.22-.09 2.274-.02 4.553-.04 6.827-.021 2.554.02 5.105.082 7.658.126 1.627.028 3.255.076 4.883.082 4.891.018 9.784.044 14.674.02 3.199-.017 6.393-.116 9.59-.176C75.89.63 77.544.596 79.201.577 80.8.56 82.404.545 84.005.552c3.85.02 7.7.054 11.548.079 3.879.025 7.757.052 11.636.07 2.39.011 4.781.008 7.172.012 8.717.014 17.435.04 26.153.04 4.328 0 8.657-.04 12.985-.072 2.95-.021 5.898-.058 8.846-.088.197-.002.397-.002.588-.015 1.323-.095 2.59-.025 3.766.17 1.655.274 3.404.347 5.231.332 4.692-.04 9.384-.098 14.077-.1 6.917-.002 13.833.05 20.75.055 9.395.007 18.79-.009 28.184-.015 3.347-.003 6.694-.006 10.039-.011 7.48-.011 14.962-.028 22.443-.034 9.76-.007 19.52-.008 29.28-.009 2.532 0 5.063.003 7.594.02 3.258.025 6.518.046 9.773.105 2.803.051 5.599.155 8.396.235 1.009.029 2.015.059 3.026.083 1.507.037 2.131.236 2.114.726-.017.551-.114 1.103-.163 1.654-.031.344-.038.688-.052 1.032-.038.87-.093 1.738-.108 2.607-.023 1.44-.026 2.88-.03 4.32-.006 1.53.002 3.06-.002 4.59-.004 1.114.015 2.228-.042 3.341-.038.742-.27 1.483-.273 2.224-.002.732.205 1.463.26 2.196.04.551-.013 1.104-.032 1.656-.014.407-.044.814-.07 1.221-.07 1.177-.147 2.353-.209 3.53-.048.86.06 1.719.326 2.575.169.537-.159 1.064-.313 1.595-.21.73-.463 1.461-.461 2.192.004 1.338.195 2.677.281 4.016.036.57.007 1.14.007 1.71h.09" fill="#FFF" fill-rule="evenodd"/>
</svg>
